X:1
T: The Dublin Lasses
C:
R:Reel
Q: 232
K:Em
M:4/4
L:1/8
|:dc|BE EF GB AG|((3FED) AD BG AF|GF EF GA B^c|d^c df ((3efg) d=c|
BE EF GB AG|((3FED) AD BG AF|GF EF GA B^c|d^c df e1/2e1/2e e2|
gf ef gb ag|fd d^c df af|gf ef gb ag|fd ((3dcd) e2 ef|
gf ef gb ag|fd d^c df af|bg af gf ed|BA ((3Bcd) e2:|
